assets/images/icon-message-chatbot.svg

<svg width="24" height="25" viewBox="0 0 24 25" fill="none" xmlns="http://www.w3.org/2000/svg">
<path d="M9.5 9.50049H9.51M14.5 9.50049H14.51M9.5 13.5005C9.82588 13.8331 10.2148 14.0973 10.6441 14.2777C11.0734 14.4581 11.5344 14.551 12 14.551C12.4656 14.551 12.9266 14.4581 13.3559 14.2777C13.7852 14.0973 14.1741 13.8331 14.5 13.5005M18 4.50049C18.7956 4.50049 19.5587 4.81656 20.1213 5.37917C20.6839 5.94178 21 6.70484 21 7.50049V15.5005C21 16.2961 20.6839 17.0592 20.1213 17.6218C19.5587 18.1844 18.7956 18.5005 18 18.5005H13L8 21.5005V18.5005H6C5.20435 18.5005 4.44129 18.1844 3.87868 17.6218C3.31607 17.0592 3 16.2961 3 15.5005V7.50049C3 6.70484 3.31607 5.94178 3.87868 5.37917C4.44129 4.81656 5.20435 4.50049 6 4.50049H18Z" stroke="#FA9531" stroke-width="2" stroke-linecap="round" stroke-linejoin="round"/>
</svg>

<svg xmlns="http://www.w3.org/2000/svg" width="24" height="25" fill="none" xmlns:v="https://vecta.io/nano"><path d="M9.5 9.5h.01m4.99 0h.01m-5.01 4a3.5 3.5 0 0 0 2.5 1.05 3.5 3.5 0 0 0 2.5-1.05m3.5-9a3 3 0 0 1 3 3v8a3 3 0 0 1-3 3h-5l-5 3v-3H6a3 3 0 0 1-3-3v-8a3 3 0 0 1 3-3h12z" stroke="#fa9531" stroke-width="2" stroke-linecap="round" stroke-linejoin="round"/></svg>
